svg/u1f336.svg

<svg viewBox="0 0 128 128" xmlns="http://www.w3.org/2000/svg">
  <path d="M113.69,45.18l-11.26,4.32L80.09,98.67l-36.13,24.59c0,0,24.87,2.06,44.2-11.07 s29.09-30.22,32.29-44.11c3.19-13.89,1.69-18.02,1.69-18.02L113.69,45.18z" fill="#DC0D28"/>
  <path d="M82.53,36.17c0,0-7.13,0.94-10.89,13.51s-1.69,22.52-10.14,33.41S45.36,98.11,31.85,95.48 c-18.46-3.59-17.27-17.1-22.9-17.83C4.63,77.09,2,90.98,8.57,102.05s19.33,19.71,33.22,21.02c13.89,1.31,38.1-6.57,51.62-27.41 S108.62,60,109,50.62S96.42,36.35,96.42,36.35L82.53,36.17z" fill="#FF5117"/>
  <path d="M86.1,49.92c-3.1-2.39-7.04,1.27-8.59,7.04c-1.55,5.77-1.69,10.7-2.53,13.51s-3.1,6.76-0.14,8.45 c2.96,1.69,5.91-3.8,7.04-8.02c1.13-4.22,2.11-10,3.66-12.81S88.54,51.8,86.1,49.92z" fill="#FFCB88"/>
  <path d="M72.77,82.53c-3.19-1.13-3.85,1.6-4.41,2.44s-1.6,2.91,0.19,4.04c1.99,1.26,3.57-0.19,4.5-1.6 C73.99,86,74.59,83.17,72.77,82.53z" fill="#FFCB88"/>
  <path d="M85.06,38.61c2.35,2.25-0.94,4.5,0.75,5.82c1.99,1.55,7.6-1.6,12.2-0.09s4.41,6.95,7.79,7.32 c3.38,0.38,3.28-2.82,7.88-2.16c4.6,0.66,6.76,6.66,9.01,6.01s1.03-8.07-4.41-13.23c-4.34-4.11-7.23-4.97-7.51-6.95 c-0.28-1.97,1.78-11.07,2.44-15.58c0.66-4.5,0.47-10.7-5.16-13.51c-5.63-2.82-10.42-0.19-11.36,1.41c-1.14,1.93-0.73,4.64,4.04,2.82 c4.41-1.69,7.41,2.35,6.85,6.29s-3.57,9.57-5.35,11.83s-2.72,3.57-4.04,3.85c-1.31,0.28-5.63-0.47-9.67-0.28 c-4.81,0.22-9.85,2.63-9.2,4.6S83.23,36.85,85.06,38.61z" fill="#98B71E"/>
</svg>

<svg viewBox="0 0 128 128" xmlns="http://www.w3.org/2000/svg">
  <defs/>
  <path d="M113.69,45.18 L102.43,49.5 L80.09,98.67 L43.96,123.26 C43.96,123.26 68.83,125.32 88.16,112.19 C107.49,99.06 117.25,81.97 120.45,68.08 C123.64,54.19 122.14,50.06 122.14,50.06 L113.69,45.18 Z" fill="#DC0D28"/>
  <path d="M82.53,36.17 C82.53,36.17 75.4,37.11 71.64,49.68 C67.88,62.25 69.95,72.2 61.5,83.09 C53.05,93.98 45.36,98.11 31.85,95.48 C13.39,91.89 14.58,78.38 8.95,77.65 C4.63,77.09 2,90.98 8.57,102.05 C15.14,113.12 27.9,121.76 41.79,123.07 C55.68,124.38 79.89,116.5 93.41,95.66 C106.93,74.82 108.62,60 109,50.62 C109.38,41.24 96.42,36.35 96.42,36.35 L82.53,36.17 Z" fill="#FF5117"/>
  <path d="M86.1,49.92 C83,47.53 79.06,51.19 77.51,56.96 C75.96,62.73 75.82,67.66 74.98,70.47 C74.14,73.28 71.88,77.23 74.84,78.92 C77.8,80.61 80.75,75.12 81.88,70.9 C83.01,66.68 83.99,60.9 85.54,58.09 C87.09,55.28 88.54,51.8 86.1,49.92 Z" fill="#FFCB88"/>
  <path d="M72.77,82.53 C69.58,81.4 68.92,84.13 68.36,84.97 C67.8,85.81 66.76,87.88 68.55,89.01 C70.54,90.27 72.12,88.82 73.05,87.41 C73.99,86 74.59,83.17 72.77,82.53 Z" fill="#FFCB88"/>
  <path d="M85.06,38.61 C87.41,40.86 84.12,43.11 85.81,44.43 C87.8,45.98 93.41,42.83 98.01,44.34 C102.61,45.85 102.42,51.29 105.8,51.66 C109.18,52.04 109.08,48.84 113.68,49.5 C118.28,50.16 120.44,56.16 122.69,55.51 C124.94,54.86 123.72,47.44 118.28,42.28 C113.94,38.17 111.05,37.31 110.77,35.33 C110.49,33.36 112.55,24.26 113.21,19.75 C113.87,15.25 113.68,9.05 108.05,6.24 C102.42,3.42 97.63,6.05 96.69,7.65 C95.55,9.58 95.96,12.29 100.73,10.47 C105.14,8.78 108.14,12.82 107.58,16.76 C107.02,20.7 104.01,26.33 102.23,28.59 C100.45,30.85 99.51,32.16 98.19,32.44 C96.88,32.72 92.56,31.97 88.52,32.16 C83.71,32.38 78.67,34.79 79.32,36.76 C79.97,38.73 83.23,36.85 85.06,38.61 Z" fill="#98B71E"/>
</svg>
